X:1
T:Title
T:Es geht ein Wehen
T:Johannes Brahms
T:op 62 nr6
T:transcription Ja'hé or make it ginger
C:Composer
%%score 1 ( 2 3 ) 4 5
L:1/8
Q:1/4=35
M:4/4
K:G
V:1 treble nm="Flute" snm="Fl."
V:2 treble transpose=-12 nm="Bass Flute" snm="B. Fl."
V:3 treble transpose=-12 
V:4 treble nm="Tenor Recorder" snm="T. Rec."
V:5 bass nm="Bassoon" snm="Bsn."
V:1
"^Grave" z2 (B2- | B)e ^d2 e2 =d2 | cB c2 B2 (B2- |!<(! B)^A B2 F2!>(! F2!<)!!>)! | F2 F2 z2 B2- | %5
 (Be ^d2 e2 =d2 | c2 B2!>(! AB c2!>)! | B4) z2 (d2 | c2!<(! B2 A2 e2!<)! |!>(! ^d2 c2 B2 A2)!>)! || %10
[M:3/4]"_cresc." G2 z2 B2 | B2 e2 =d2 | c4 c2 | c2 =f2 e2 |!<(! ^d4 d2!<)! | e4 B2 | c2 A2 =F2 | %17
 ^D6 ||[M:4/4] E4 z2!<(! (B2!<)! | e2 ^d2 e2 =d2 | cB c2!>(! B2 B2)!>)! |!<(! (^A2 B2 F2 F2!<)! | %22
 F2!>(! F2 z2 B2)!>)! |!<(! (e2 ^d2 e2 =d2!<)! | c2 B2 AB c2) | !fermata!B4 z2!>(! d2!>)! | %26
"_cresc." c2 B2 A2 e2 | ^d2 c2 B2 A2 ||[K:E][M:3/4] G2 z2"_cresc." B2 | B2 e2 =d2 | d4!<(! d2!<)! | %31
 (c2 f2 e2 | ^d4 d2 | e4 B2 | ^B2 c2 A2 | G4) c2 |!>(! c2 B2 A2!>)! | G2 z2 (B2 | B2 e2 =d2 | %39
 c4 c2 | c2 f2 e2 | ^d4) d2 | e4 B2 | f2 c2 e2 | e2 dc d2 | e3 z | z6 |] %47
V:2
 z2 (g2 | b2 a2 b2 a2 | g2 f2 g2 B2 | ^c2 f2 ed c2 | ^c2 =d2 z2 e2 | g2 f2 b2) a2 | g2 f2 e2 ^d2 | %7
 e4 z2 e2 | e2 e2 e2 e2 | f2 a2 g2 f2 ||[M:3/4] e2 z2 g2 | g4 ^g2 | a4 a2 | a4 a2 | ^f2 b2 a2 | %15
 (g2 f2 e2 | e2 =f2 c2 | c2 B2 A2) ||[M:4/4] G4 z2!<(! (g2!<)! | b2 a2 b2 a2 | g2 f2 g2 B2) | %21
 (^c2 f2 ed c2 | ^c2 ^d2 z2 e2) | (g2 f2 b2 a2 | g2 f2 e2 ^d2) | !fermata!e4 z2 e2 | e2 e2 e2 e2 | %27
 f2 a2 g2 f2 ||[K:E][M:3/4] e2 z2 g2 | g4 g2 | a4 a2 | (a4 a2 | f2 b2 a2 | g2 a2 b2 | e4 f2 | %35
 g4) =g2 | f6 | e2 z2 g2 | g4 g2 | a4 a2 | a4 a2 | f2 b2 a2 | g2 a2 b2 | ^a2 b2 c'2 | c'2 b2 a2 | %45
 z4 | z6 |] %47
V:3
 x4 | x8 | x8 | x8 | x8 | x8 | x8 | x8 | x8 | x8 ||[M:3/4] x6 | x6 | x6 | x6 | x6 | x6 | x6 | x6 || %18
[M:4/4] x8 | x8 | x8 | x8 | x8 | x8 | x8 | x8 | x8 | x8 ||[K:E][M:3/4] x6 | x6 | x6 | x6 | x6 | %33
 x6 | x6 | (e2 d2) x2 | x6 | x6 | x6 | x6 | x6 | x6 | x6 | x6 | =a2 g z x2 | x3 z | x6 |] %47
V:4
 z2 (e2 | g2 f2 g2 f2 | e2 ^d2 e2) e2 | (e2 =d2) ^cA ^A2 | ^A2 B2 z2 B2 | (B2 =a2 g2 f2 | %6
[K:treble] e2 d2 cB A2 | B4) z2 (B2 | A2 ^G2 A2 ^A2 | B2 ^D2 z2 B2) ||[M:3/4] B2 e2 =d2 | %11
 d2 B2 e2 | (e2 a2 g2 | =f2 d2 c2) | B4 B2 | (B2 A2 G2 | A4 A2 | A2 G2 F2) ||[M:4/4] E4 z2 (e2 | %19
 g2 f2 g2 f2 | e2 ^d2 e2 e2) | (e2 =d2 cB ^A2 | ^A2 B2 z2 B2) | (B2 =a2 g2 f2 | e2 d2 cB A2) | %25
 !fermata!B4 z2 B2 | A2 ^G2 A2 ^A2 | B2 ^D2 z2 B2 ||[K:E][M:3/4] B2 e2 =d2 | c2 B2 e2 | e2 a2 g2 | %31
 (f2 ^d2 c2 | B4 B2 | B4 e2 | e2 c2 c2 | B4) ^A2 | B2 z2 B2 | (B2 e2 =d2 | c2 B2 e2 | e2 a2 g2 | %40
 f2 ^d2 c2 | B4) B2 | g2 f2 e2 | c4 f2 | f2 B4 | B3 z | z6 |] %47
V:5
 [G,,G,]4 | [G,,G,]4!<(! [G,,G,]4!<)! | [G,,G,]4 [G,,G,]4 | [F,,F,]4 [F,,F,]4 | %4
!>(! [B,,F,]4 [G,,G,]4!>)! | [G,,G,]4 [G,,G,]4 | [G,,G,]4 [G,,G,]4 | G,,4 ^G,,4 | %8
 A,,2 B,,2 C,2 ^C,2 | B,,4 B,,4 ||[M:3/4] E,4 E,2 | E,4 E,2 | A,4 A,,2 | A,4 A,2 | A,2 G,2 F,2 | %15
 E,4 E,2 | A,,4 A,,2 | B,,6 ||[M:4/4] E,4 [G,,G,]4 | [G,,G,]4 [G,,G,]4 | [G,,G,]4 [G,,G,]4 | %21
 [F,,F,]4 [F,,F,]4 | [B,,F,]4 [G,,G,]4 | [G,,G,]4 [G,,G,]4 | [G,,G,]4 [G,,G,]4 | %25
 !fermata!G,,4 ^G,,4 | A,,2 B,,2 C,2 ^C,2 | B,,4 B,4 ||[K:E][M:3/4] E,4 E,2 | E,4 E,2 | A,,4 A,,2 | %31
 (A,,4 A,2 | A,2 G,2 F,2 | E,2 F,2 G,2 | A,4 F,2 | B,4) E,2 | B,,4 B,2 | E,4 E,2 | E,4 E,2 | %39
 [A,,A,]4 [A,,A,]2 | [A,,A,]4 (A,2 | A,2 G,2 F,2 | E,4) G,2 | F,2 G,2 ^A,2 | B,4 B,,2 | E,3 z | %46
 z6 |] %47

